X: 26693
T: Mike And Wendy's
R: jig
M: 6/8
K: Amajor
ABc ecA|~B3 AFD|DFA EGB|f3 edc|
B2 B {d}cBA|FGA E3|EAF GAB|{d}cAA A3:|
~f3 edc|f (3def edc|BEB c2 B|Ace a2e|
~f3 ~g3|agf e2c|EAF GAB|{d}cAA A3:|
BEB Bcd|edc BEB|c B2 EGB|AcB cde|
{a}fed {a}fed|{a}gfe {a}gfe|aec ~B3|{d}cAA A3:|

